src/icons/svgs/16/chevron-down.svg

<svg width="16" height="16" viewBox="0 0 16 16" fill="none" xmlns="http://www.w3.org/2000/svg">
<path d="M1.85001 5.30012C1.85001 5.5304 1.93546 5.7608 2.10635 5.9363L7.35636 11.3363C7.69815 11.6879 8.25186 11.6879 8.59366 11.3363L13.8437 5.9363C14.1855 5.58474 14.1855 5.01521 13.8437 4.66365C13.5019 4.31208 12.9482 4.31208 12.6064 4.66365L7.97501 9.42746L3.34297 4.66309C3.00118 4.31152 2.44747 4.31152 2.10567 4.66309C1.93477 4.83887 1.85001 5.06949 1.85001 5.30012Z" fill="black"/>
</svg>

<svg width="16" height="16" viewBox="0 0 16 16" xmlns="http://www.w3.org/2000/svg">
    <path d="M1.85 5.3c0 .23.085.46.256.636l5.25 5.4a.858.858 0 0 0 1.238 0l5.25-5.4a.918.918 0 0 0 0-1.272.858.858 0 0 0-1.238 0L7.975 9.427 3.343 4.663a.858.858 0 0 0-1.237 0 .91.91 0 0 0-.256.637z"/>
</svg>
